X: 7798
T: Come To Dinner
R: jig
M: 6/8
K: Adorian
B|:cAA A3|EAB cBA|BGG G3|BGB dcB|
cAA A3|EAB cBA|dBG EAB|cAA A3:|
|:a3 efg|age edc|dBG G2A|B2c de/f/g|
a3 efg|age edc|dBG EAB|cAA A3:|

